src/assets/star-filled-icon.svg

<svg width="32" height="32" viewBox="0 0 32 32" fill="none" xmlns="http://www.w3.org/2000/svg">
<g clip-path="url(#clip0_1509_3379)">
<path d="M15.5157 0.671871C15.1188 0.746872 14.9625 0.799995 14.6094 0.978121C13.9875 1.29062 13.5813 1.74687 13.1594 2.60937C13.05 2.83437 12.6344 3.675 12.2344 4.48437C11.0844 6.80937 10.4532 8.09375 10.3563 8.29687C10.2344 8.55937 10.05 8.825 9.92817 8.91875C9.73442 9.06562 9.57817 9.11562 9.04692 9.19062C8.92817 9.20937 8.7438 9.23437 8.64067 9.25C8.53755 9.26562 8.35005 9.29375 8.22817 9.3125C8.10317 9.32812 7.89692 9.35937 7.77505 9.375C7.65005 9.39375 7.4563 9.42187 7.3438 9.4375C7.2313 9.45625 7.0438 9.48125 6.92192 9.49687C6.80317 9.51562 6.6063 9.54375 6.48442 9.5625C6.21567 9.60312 5.9313 9.64687 5.64067 9.68437C5.52192 9.70312 5.32505 9.73125 5.20317 9.75C5.08442 9.76875 4.89067 9.79687 4.77505 9.8125C4.6563 9.83125 4.46567 9.85625 4.3438 9.875C4.22505 9.89062 4.0313 9.91875 3.91567 9.9375C3.79692 9.95312 3.6063 9.98125 3.48442 10C3.36567 10.0187 3.17192 10.0469 3.05317 10.0625C2.49692 10.1437 2.41255 10.1562 2.2813 10.1875C2.20317 10.2062 2.10317 10.2312 2.05317 10.2406C2.0063 10.25 1.95942 10.2687 1.95005 10.2844C1.94067 10.3 1.91255 10.3125 1.88755 10.3125C1.81255 10.3125 1.55942 10.4406 1.31255 10.6031C0.700049 11.0062 0.290674 11.575 0.0594238 12.3437C4.88311e-05 12.5406 4.88311e-05 13.6469 0.0594238 13.8437C0.150049 14.1437 0.315674 14.4937 0.487549 14.7531C0.615674 14.9437 1.3188 15.6594 2.70005 17C2.97505 17.2656 3.27817 17.5625 3.37505 17.6562C3.47192 17.75 3.8313 18.1031 4.17505 18.4375C4.51567 18.7719 5.04692 19.2906 5.35317 19.5906C5.65942 19.8875 5.94692 20.1906 5.99692 20.2625C6.20317 20.5687 6.2188 20.7562 6.0938 21.4687C6.07817 21.5625 6.05005 21.7312 6.02817 21.8437C6.00942 21.9562 5.9813 22.1156 5.9688 22.2031C5.9563 22.2875 5.92817 22.4469 5.90942 22.5531C5.89067 22.6625 5.85942 22.8375 5.84067 22.9437C5.82192 23.0531 5.7938 23.2094 5.7813 23.2969C5.7688 23.3812 5.74067 23.5406 5.72192 23.6469C5.70317 23.7562 5.67192 23.9312 5.65317 24.0375C5.63442 24.1469 5.6063 24.3031 5.5938 24.3906C5.5813 24.475 5.55317 24.6312 5.53442 24.7344C5.51567 24.8375 5.48755 25.0062 5.47192 25.1094C5.43442 25.3281 5.3813 25.6406 5.3438 25.8594C5.32817 25.9437 5.30005 26.1062 5.2813 26.2187C5.26255 26.3312 5.23442 26.5062 5.21567 26.6094C5.19692 26.7125 5.1688 26.8656 5.1563 26.9531C5.11567 27.2 5.06255 27.5 5.02817 27.6875C4.97505 27.9594 4.9563 28.8 5.00005 29C5.17817 29.8062 5.6188 30.45 6.30005 30.8969C6.4563 30.9969 6.66567 31.1156 6.7688 31.1531C6.8688 31.1937 6.9813 31.2375 7.01567 31.25C7.1688 31.3125 7.7063 31.4062 7.92192 31.4062C8.37505 31.4062 8.9063 31.2531 9.46255 30.9625C9.66255 30.8594 9.99692 30.6844 10.2032 30.5781C10.4094 30.4719 10.6907 30.325 10.8282 30.25C10.9657 30.175 11.2344 30.0344 11.4219 29.9375C11.6125 29.8406 11.8719 29.7031 12 29.6344C12.1282 29.5656 12.4313 29.4062 12.6719 29.2812C12.9125 29.1562 13.2157 28.9969 13.3438 28.9281C13.4719 28.8594 13.725 28.725 13.9063 28.6312C14.0875 28.5375 14.3688 28.3906 14.5313 28.3031C14.6938 28.2187 15.0188 28.05 15.25 27.9281L15.6719 27.7094L15.9844 27.7062H16.2969L16.7813 27.9594C17.0469 28.0969 17.3844 28.275 17.5313 28.35C17.6782 28.4281 17.9532 28.5719 18.1407 28.6719C18.3313 28.7719 18.6032 28.9156 18.75 28.9937C18.8969 29.0687 19.1625 29.2094 19.3438 29.3062C19.525 29.4 19.8001 29.5437 19.9594 29.6281C20.1188 29.7125 20.4063 29.8625 20.6 29.9656C20.7938 30.0656 21.0813 30.2156 21.2344 30.2969C22.5157 30.975 22.8719 31.1531 23.1188 31.2375C23.3907 31.3281 23.8157 31.4062 24.0469 31.4062C24.5 31.4062 25.1625 31.2219 25.5157 30.9969C25.5938 30.9469 25.6657 30.9062 25.675 30.9062C25.6844 30.9062 25.7969 30.8219 25.9219 30.7187C26.4625 30.2781 26.8125 29.7 26.9688 29C27.0126 28.8 26.9938 27.9594 26.9407 27.6875C26.925 27.5937 26.8938 27.425 26.875 27.3125C26.8563 27.2 26.8282 27.025 26.8094 26.9219C26.7907 26.8187 26.7626 26.6625 26.75 26.5781C26.725 26.4187 26.6813 26.1687 26.6219 25.8281C26.6032 25.725 26.5751 25.5687 26.5625 25.4844C26.5375 25.325 26.4938 25.075 26.4344 24.7344C26.4157 24.6312 26.3876 24.475 26.375 24.3906C26.3625 24.3031 26.3344 24.1469 26.3157 24.0375C26.2969 23.9312 26.2657 23.7562 26.2469 23.6469C26.2282 23.5406 26.2001 23.3812 26.1875 23.2969C26.175 23.2094 26.1469 23.0562 26.1282 22.9531C26.0688 22.6125 26.025 22.3625 26 22.2031C25.9875 22.1156 25.9594 21.9562 25.9407 21.8437C25.9188 21.7312 25.8907 21.5625 25.875 21.4687C25.75 20.7594 25.7657 20.5687 25.9719 20.2656C26.0188 20.1969 26.2782 19.9219 26.55 19.6562C26.825 19.3906 27.3282 18.8969 27.6688 18.5625C28.3625 17.8812 28.4938 17.7562 29.2063 17.0625C31.5188 14.8125 31.575 14.75 31.8407 14.0531C31.9032 13.8906 31.9375 13.7562 31.9375 13.6781C31.9375 13.6312 31.9532 13.5937 31.9688 13.5937C31.9875 13.5937 32 13.4062 32 13.0969C32 12.7969 31.9875 12.5906 31.9688 12.5781C31.9532 12.5687 31.9375 12.525 31.9375 12.4844C31.9375 12.4437 31.925 12.3781 31.9094 12.3375C31.8938 12.2969 31.8657 12.2094 31.8438 12.1406C31.7188 11.7469 31.425 11.275 31.1032 10.9656C30.8032 10.6719 30.2375 10.3125 30.0813 10.3125C30.0563 10.3125 30.0282 10.3 30.0188 10.2844C30.0094 10.2687 29.9625 10.25 29.9157 10.2406C29.8657 10.2312 29.7657 10.2062 29.6875 10.1875C29.6094 10.1687 29.4563 10.1406 29.3438 10.125C29.2313 10.1094 29.0438 10.0812 28.9219 10.0625C28.8032 10.0437 28.6063 10.0156 28.4844 9.99687C28.3657 9.98125 28.175 9.95312 28.0625 9.9375C27.9501 9.91875 27.7626 9.89375 27.6407 9.87812C27.5219 9.85937 27.3251 9.83125 27.2032 9.8125C27.0844 9.79375 26.8907 9.76562 26.775 9.75C26.5469 9.71562 26.225 9.66875 25.9219 9.625C25.8188 9.60937 25.6313 9.58125 25.5094 9.5625C25.3844 9.54687 25.1844 9.51562 25.0625 9.5C24.9438 9.48125 24.75 9.45625 24.6344 9.4375C24.5157 9.42187 24.3251 9.39375 24.2032 9.375C24.0844 9.35625 23.8907 9.32812 23.775 9.3125C23.6563 9.29375 23.4657 9.26562 23.3438 9.25C23.225 9.23125 23.0313 9.20625 22.9157 9.19062C22.4 9.11875 22.2344 9.06562 22.0407 8.91875C21.95 8.85 21.6875 8.50312 21.6875 8.45312C21.6875 8.44375 21.3969 7.84687 21.0438 7.13125C19.4844 3.98125 18.9969 2.99062 18.8094 2.60937C18.4563 1.88437 18.1094 1.45 17.6344 1.13437C17.0063 0.71562 16.2125 0.543747 15.5157 0.671871Z" fill="currentColor"/>
<path d="M15.5157 0.671871C15.1188 0.746872 14.9625 0.799995 14.6094 0.978121C13.9875 1.29062 13.5813 1.74687 13.1594 2.60937C13.05 2.83437 12.6344 3.675 12.2344 4.48437C11.0844 6.80937 10.4532 8.09375 10.3563 8.29687C10.2344 8.55937 10.05 8.825 9.92817 8.91875C9.73442 9.06562 9.57817 9.11562 9.04692 9.19062C8.92817 9.20937 8.7438 9.23437 8.64067 9.25C8.53755 9.26562 8.35005 9.29375 8.22817 9.3125C8.10317 9.32812 7.89692 9.35937 7.77505 9.375C7.65005 9.39375 7.4563 9.42187 7.3438 9.4375C7.2313 9.45625 7.0438 9.48125 6.92192 9.49687C6.80317 9.51562 6.6063 9.54375 6.48442 9.5625C6.21567 9.60312 5.9313 9.64687 5.64067 9.68437C5.52192 9.70312 5.32505 9.73125 5.20317 9.75C5.08442 9.76875 4.89067 9.79687 4.77505 9.8125C4.6563 9.83125 4.46567 9.85625 4.3438 9.875C4.22505 9.89062 4.0313 9.91875 3.91567 9.9375C3.79692 9.95312 3.6063 9.98125 3.48442 10C3.36567 10.0187 3.17192 10.0469 3.05317 10.0625C2.49692 10.1437 2.41255 10.1562 2.2813 10.1875C2.20317 10.2062 2.10317 10.2312 2.05317 10.2406C2.0063 10.25 1.95942 10.2687 1.95005 10.2844C1.94067 10.3 1.91255 10.3125 1.88755 10.3125C1.81255 10.3125 1.55942 10.4406 1.31255 10.6031C0.700049 11.0062 0.290674 11.575 0.0594238 12.3437C4.88311e-05 12.5406 4.88311e-05 13.6469 0.0594238 13.8437C0.150049 14.1437 0.315674 14.4937 0.487549 14.7531C0.615674 14.9437 1.3188 15.6594 2.70005 17C2.97505 17.2656 3.27817 17.5625 3.37505 17.6562C3.47192 17.75 3.8313 18.1031 4.17505 18.4375C4.51567 18.7719 5.04692 19.2906 5.35317 19.5906C5.65942 19.8875 5.94692 20.1906 5.99692 20.2625C6.20317 20.5687 6.2188 20.7562 6.0938 21.4687C6.07817 21.5625 6.05005 21.7312 6.02817 21.8437C6.00942 21.9562 5.9813 22.1156 5.9688 22.2031C5.9563 22.2875 5.92817 22.4469 5.90942 22.5531C5.89067 22.6625 5.85942 22.8375 5.84067 22.9437C5.82192 23.0531 5.7938 23.2094 5.7813 23.2969C5.7688 23.3812 5.74067 23.5406 5.72192 23.6469C5.70317 23.7562 5.67192 23.9312 5.65317 24.0375C5.63442 24.1469 5.6063 24.3031 5.5938 24.3906C5.5813 24.475 5.55317 24.6312 5.53442 24.7344C5.51567 24.8375 5.48755 25.0062 5.47192 25.1094C5.43442 25.3281 5.3813 25.6406 5.3438 25.8594C5.32817 25.9437 5.30005 26.1062 5.2813 26.2187C5.26255 26.3312 5.23442 26.5062 5.21567 26.6094C5.19692 26.7125 5.1688 26.8656 5.1563 26.9531C5.11567 27.2 5.06255 27.5 5.02817 27.6875C4.97505 27.9594 4.9563 28.8 5.00005 29C5.17817 29.8062 5.6188 30.45 6.30005 30.8969C6.4563 30.9969 6.66567 31.1156 6.7688 31.1531C6.8688 31.1937 6.9813 31.2375 7.01567 31.25C7.1688 31.3125 7.7063 31.4062 7.92192 31.4062C8.37505 31.4062 8.9063 31.2531 9.46255 30.9625C9.66255 30.8594 9.99692 30.6844 10.2032 30.5781C10.4094 30.4719 10.6907 30.325 10.8282 30.25C10.9657 30.175 11.2344 30.0344 11.4219 29.9375C11.6125 29.8406 11.8719 29.7031 12 29.6344C12.1282 29.5656 12.4313 29.4062 12.6719 29.2812C12.9125 29.1562 13.2157 28.9969 13.3438 28.9281C13.4719 28.8594 13.725 28.725 13.9063 28.6312C14.0875 28.5375 14.3688 28.3906 14.5313 28.3031C14.6938 28.2187 15.0188 28.05 15.25 27.9281L15.6719 27.7094L15.9844 27.7062H16.2969L16.7813 27.9594C17.0469 28.0969 17.3844 28.275 17.5313 28.35C17.6782 28.4281 17.9532 28.5719 18.1407 28.6719C18.3313 28.7719 18.6032 28.9156 18.75 28.9937C18.8969 29.0687 19.1625 29.2094 19.3438 29.3062C19.525 29.4 19.8001 29.5437 19.9594 29.6281C20.1188 29.7125 20.4063 29.8625 20.6 29.9656C20.7938 30.0656 21.0813 30.2156 21.2344 30.2969C22.5157 30.975 22.8719 31.1531 23.1188 31.2375C23.3907 31.3281 23.8157 31.4062 24.0469 31.4062C24.5 31.4062 25.1625 31.2219 25.5157 30.9969C25.5938 30.9469 25.6657 30.9062 25.675 30.9062C25.6844 30.9062 25.7969 30.8219 25.9219 30.7187C26.4625 30.2781 26.8125 29.7 26.9688 29C27.0126 28.8 26.9938 27.9594 26.9407 27.6875C26.925 27.5937 26.8938 27.425 26.875 27.3125C26.8563 27.2 26.8282 27.025 26.8094 26.9219C26.7907 26.8187 26.7626 26.6625 26.75 26.5781C26.725 26.4187 26.6813 26.1687 26.6219 25.8281C26.6032 25.725 26.5751 25.5687 26.5625 25.4844C26.5375 25.325 26.4938 25.075 26.4344 24.7344C26.4157 24.6312 26.3876 24.475 26.375 24.3906C26.3625 24.3031 26.3344 24.1469 26.3157 24.0375C26.2969 23.9312 26.2657 23.7562 26.2469 23.6469C26.2282 23.5406 26.2001 23.3812 26.1875 23.2969C26.175 23.2094 26.1469 23.0562 26.1282 22.9531C26.0688 22.6125 26.025 22.3625 26 22.2031C25.9875 22.1156 25.9594 21.9562 25.9407 21.8437C25.9188 21.7312 25.8907 21.5625 25.875 21.4687C25.75 20.7594 25.7657 20.5687 25.9719 20.2656C26.0188 20.1969 26.2782 19.9219 26.55 19.6562C26.825 19.3906 27.3282 18.8969 27.6688 18.5625C28.3625 17.8812 28.4938 17.7562 29.2063 17.0625C31.5188 14.8125 31.575 14.75 31.8407 14.0531C31.9032 13.8906 31.9375 13.7562 31.9375 13.6781C31.9375 13.6312 31.9532 13.5937 31.9688 13.5937C31.9875 13.5937 32 13.4062 32 13.0969C32 12.7969 31.9875 12.5906 31.9688 12.5781C31.9532 12.5687 31.9375 12.525 31.9375 12.4844C31.9375 12.4437 31.925 12.3781 31.9094 12.3375C31.8938 12.2969 31.8657 12.2094 31.8438 12.1406C31.7188 11.7469 31.425 11.275 31.1032 10.9656C30.8032 10.6719 30.2375 10.3125 30.0813 10.3125C30.0563 10.3125 30.0282 10.3 30.0188 10.2844C30.0094 10.2687 29.9625 10.25 29.9157 10.2406C29.8657 10.2312 29.7657 10.2062 29.6875 10.1875C29.6094 10.1687 29.4563 10.1406 29.3438 10.125C29.2313 10.1094 29.0438 10.0812 28.9219 10.0625C28.8032 10.0437 28.6063 10.0156 28.4844 9.99687C28.3657 9.98125 28.175 9.95312 28.0625 9.9375C27.9501 9.91875 27.7626 9.89375 27.6407 9.87812C27.5219 9.85937 27.3251 9.83125 27.2032 9.8125C27.0844 9.79375 26.8907 9.76562 26.775 9.75C26.5469 9.71562 26.225 9.66875 25.9219 9.625C25.8188 9.60937 25.6313 9.58125 25.5094 9.5625C25.3844 9.54687 25.1844 9.51562 25.0625 9.5C24.9438 9.48125 24.75 9.45625 24.6344 9.4375C24.5157 9.42187 24.3251 9.39375 24.2032 9.375C24.0844 9.35625 23.8907 9.32812 23.775 9.3125C23.6563 9.29375 23.4657 9.26562 23.3438 9.25C23.225 9.23125 23.0313 9.20625 22.9157 9.19062C22.4 9.11875 22.2344 9.06562 22.0407 8.91875C21.95 8.85 21.6875 8.50312 21.6875 8.45312C21.6875 8.44375 21.3969 7.84687 21.0438 7.13125C19.4844 3.98125 18.9969 2.99062 18.8094 2.60937C18.4563 1.88437 18.1094 1.45 17.6344 1.13437C17.0063 0.71562 16.2125 0.543747 15.5157 0.671871Z" fill="currentColor"/>
</g>
<defs>
<clipPath id="clip0_1509_3379">
<rect width="32" height="32" fill="white"/>
</clipPath>
</defs>
</svg>

<svg width="32" height="32" fill="none" xmlns="http://www.w3.org/2000/svg"><g clip-path="url(#a)" fill="currentColor"><path d="M15.516.672a2.751 2.751 0 0 0-.907.306c-.621.313-1.028.769-1.45 1.631-.109.225-.525 1.066-.925 1.875a707.649 707.649 0 0 0-1.878 3.813c-.122.262-.306.528-.428.622-.194.147-.35.197-.881.272-.119.018-.303.043-.406.059l-.413.063c-.125.015-.331.046-.453.062a48.857 48.857 0 0 1-.853.122c-.119.019-.316.047-.438.066-.268.04-.553.084-.843.121-.12.02-.316.047-.438.066-.119.019-.312.047-.428.063-.119.018-.31.043-.431.062-.119.016-.313.044-.428.063-.12.015-.31.043-.432.062-.118.019-.312.047-.43.063-.557.08-.641.093-.773.124-.078.02-.178.044-.228.054-.047.009-.094.028-.103.043-.01.016-.037.028-.062.028-.075 0-.329.129-.575.291-.613.403-1.022.972-1.254 1.74-.059.198-.059 1.304 0 1.5.091.3.257.65.429.91.128.19.83.906 2.212 2.247l.675.656.8.782 1.178 1.153c.306.296.594.6.644.671.206.307.222.494.097 1.207a16.45 16.45 0 0 1-.066.375c-.019.112-.047.272-.06.36-.012.084-.04.243-.059.35l-.068.39c-.02.11-.047.265-.06.353-.012.084-.04.244-.06.35-.018.11-.05.284-.068.39-.019.11-.047.266-.06.354-.012.084-.04.24-.059.343-.018.103-.046.272-.062.375l-.128.75a25.12 25.12 0 0 0-.063.36l-.065.39c-.02.103-.047.257-.06.344-.04.247-.093.547-.128.735C4.975 27.959 4.956 28.8 5 29c.178.806.619 1.45 1.3 1.897a3.207 3.207 0 0 0 .716.353c.153.063.69.156.906.156.453 0 .984-.153 1.54-.444l.741-.384c.206-.106.488-.253.625-.328.138-.075.406-.216.594-.313.19-.096.45-.234.578-.303.128-.068.431-.228.672-.353.24-.125.544-.284.672-.353s.381-.203.562-.297c.181-.093.463-.24.625-.328.163-.084.488-.253.719-.375l.422-.219.312-.003h.313l.484.253c.266.138.603.316.75.391l.61.322.609.322c.147.075.413.215.594.312l.615.322.641.338.634.33c1.282.679 1.638.857 1.885.942.272.09.697.168.928.168.453 0 1.116-.184 1.469-.41.078-.05.15-.09.159-.09.01 0 .122-.084.247-.187.54-.44.89-1.019 1.047-1.719.044-.2.025-1.04-.028-1.313l-.066-.375c-.019-.112-.047-.287-.066-.39-.018-.103-.046-.26-.059-.344-.025-.16-.069-.41-.128-.75a14.41 14.41 0 0 1-.06-.344c-.024-.159-.068-.409-.128-.75-.018-.103-.046-.259-.059-.343-.012-.088-.04-.244-.06-.353l-.068-.391c-.019-.106-.047-.266-.06-.35-.012-.088-.04-.24-.059-.344-.06-.34-.103-.59-.128-.75-.012-.087-.04-.247-.06-.36-.021-.112-.05-.28-.065-.374-.125-.71-.11-.9.097-1.203a7.93 7.93 0 0 1 .578-.61c.275-.265.778-.76 1.119-1.093.694-.682.825-.807 1.537-1.5 2.313-2.25 2.369-2.313 2.635-3.01.062-.162.096-.297.096-.375 0-.047.016-.084.032-.084.018 0 .031-.188.031-.497 0-.3-.012-.506-.031-.519-.016-.01-.032-.053-.032-.094a.489.489 0 0 0-.028-.146 4.837 4.837 0 0 1-.065-.197 3.08 3.08 0 0 0-.74-1.175c-.3-.294-.866-.653-1.023-.653-.025 0-.053-.013-.062-.029-.01-.015-.056-.034-.103-.043-.05-.01-.15-.035-.229-.053a4.352 4.352 0 0 0-.343-.063l-.422-.063-.438-.065-.422-.06a13.7 13.7 0 0 0-.421-.059l-.438-.066a153.993 153.993 0 0 0-1.281-.188l-.413-.062c-.125-.015-.325-.046-.447-.062-.118-.019-.312-.044-.428-.063-.118-.015-.309-.043-.43-.062a23.56 23.56 0 0 0-.429-.063c-.119-.018-.31-.046-.431-.062-.119-.019-.313-.044-.428-.06-.516-.071-.682-.124-.875-.271-.091-.069-.354-.416-.354-.466 0-.01-.29-.606-.643-1.322-1.56-3.15-2.047-4.14-2.235-4.522-.353-.725-.7-1.159-1.175-1.475-.628-.418-1.422-.59-2.118-.462Z"/><path d="M15.516.672a2.751 2.751 0 0 0-.907.306c-.621.313-1.028.769-1.45 1.631-.109.225-.525 1.066-.925 1.875a707.649 707.649 0 0 0-1.878 3.813c-.122.262-.306.528-.428.622-.194.147-.35.197-.881.272-.119.018-.303.043-.406.059l-.413.063c-.125.015-.331.046-.453.062a48.857 48.857 0 0 1-.853.122c-.119.019-.316.047-.438.066-.268.04-.553.084-.843.121-.12.02-.316.047-.438.066-.119.019-.312.047-.428.063-.119.018-.31.043-.431.062-.119.016-.313.044-.428.063-.12.015-.31.043-.432.062-.118.019-.312.047-.43.063-.557.08-.641.093-.773.124-.078.02-.178.044-.228.054-.047.009-.094.028-.103.043-.01.016-.037.028-.062.028-.075 0-.329.129-.575.291-.613.403-1.022.972-1.254 1.74-.059.198-.059 1.304 0 1.5.091.3.257.65.429.91.128.19.83.906 2.212 2.247l.675.656.8.782 1.178 1.153c.306.296.594.6.644.671.206.307.222.494.097 1.207a16.45 16.45 0 0 1-.066.375c-.019.112-.047.272-.06.36-.012.084-.04.243-.059.35l-.068.39c-.02.11-.047.265-.06.353-.012.084-.04.244-.06.35-.018.11-.05.284-.068.39-.019.11-.047.266-.06.354-.012.084-.04.24-.059.343-.018.103-.046.272-.062.375l-.128.75a25.12 25.12 0 0 0-.063.36l-.065.39c-.02.103-.047.257-.06.344-.04.247-.093.547-.128.735C4.975 27.959 4.956 28.8 5 29c.178.806.619 1.45 1.3 1.897a3.207 3.207 0 0 0 .716.353c.153.063.69.156.906.156.453 0 .984-.153 1.54-.444l.741-.384c.206-.106.488-.253.625-.328.138-.075.406-.216.594-.313.19-.096.45-.234.578-.303.128-.068.431-.228.672-.353.24-.125.544-.284.672-.353s.381-.203.562-.297c.181-.093.463-.24.625-.328.163-.084.488-.253.719-.375l.422-.219.312-.003h.313l.484.253c.266.138.603.316.75.391l.61.322.609.322c.147.075.413.215.594.312l.615.322.641.338.634.33c1.282.679 1.638.857 1.885.942.272.09.697.168.928.168.453 0 1.116-.184 1.469-.41.078-.05.15-.09.159-.09.01 0 .122-.084.247-.187.54-.44.89-1.019 1.047-1.719.044-.2.025-1.04-.028-1.313l-.066-.375c-.019-.112-.047-.287-.066-.39-.018-.103-.046-.26-.059-.344-.025-.16-.069-.41-.128-.75a14.41 14.41 0 0 1-.06-.344c-.024-.159-.068-.409-.128-.75-.018-.103-.046-.259-.059-.343-.012-.088-.04-.244-.06-.353l-.068-.391c-.019-.106-.047-.266-.06-.35-.012-.088-.04-.24-.059-.344-.06-.34-.103-.59-.128-.75-.012-.087-.04-.247-.06-.36-.021-.112-.05-.28-.065-.374-.125-.71-.11-.9.097-1.203a7.93 7.93 0 0 1 .578-.61c.275-.265.778-.76 1.119-1.093.694-.682.825-.807 1.537-1.5 2.313-2.25 2.369-2.313 2.635-3.01.062-.162.096-.297.096-.375 0-.047.016-.084.032-.084.018 0 .031-.188.031-.497 0-.3-.012-.506-.031-.519-.016-.01-.032-.053-.032-.094a.489.489 0 0 0-.028-.146 4.837 4.837 0 0 1-.065-.197 3.08 3.08 0 0 0-.74-1.175c-.3-.294-.866-.653-1.023-.653-.025 0-.053-.013-.062-.029-.01-.015-.056-.034-.103-.043-.05-.01-.15-.035-.229-.053a4.352 4.352 0 0 0-.343-.063l-.422-.063-.438-.065-.422-.06a13.7 13.7 0 0 0-.421-.059l-.438-.066a153.993 153.993 0 0 0-1.281-.188l-.413-.062c-.125-.015-.325-.046-.447-.062-.118-.019-.312-.044-.428-.063-.118-.015-.309-.043-.43-.062a23.56 23.56 0 0 0-.429-.063c-.119-.018-.31-.046-.431-.062-.119-.019-.313-.044-.428-.06-.516-.071-.682-.124-.875-.271-.091-.069-.354-.416-.354-.466 0-.01-.29-.606-.643-1.322-1.56-3.15-2.047-4.14-2.235-4.522-.353-.725-.7-1.159-1.175-1.475-.628-.418-1.422-.59-2.118-.462Z"/></g><defs><clipPath id="a"><path fill="#fff" d="M0 0h32v32H0z"/></clipPath></defs></svg>
